pk/paypal.svg

<svg viewBox="0 0 48 48" fill="none" xmlns="http://www.w3.org/2000/svg" height="1em" width="1em">
  <path fill-rule="evenodd" clip-rule="evenodd" d="M33.0312 28C39 28 43 25.5 43 20C43 14.5 39 12 33.0312 12H22L17 43H26L28 28H33.0312Z" stroke="black" stroke-width="4" stroke-linecap="round" stroke-linejoin="round"/>
  <path d="M18 36H10L15 5H26.0312C32 5 36 7.5 36 13C36 18.5 32 21 26.0312 21H21" stroke="black" stroke-width="4" stroke-linecap="round" stroke-linejoin="round"/>
</svg>

<svg viewBox="0 0 48 48" fill="none" xmlns="http://www.w3.org/2000/svg" height="1em" width="1em">
  <path clip-rule="evenodd" d="M33.031 28C39 28 43 25.5 43 20s-4-8-9.969-8H22l-5 31h9l2-15h5.031Z" stroke="#000" stroke-width="4" stroke-linecap="round" stroke-linejoin="round"/>
  <path d="M18 36h-8l5-31h11.031C32 5 36 7.5 36 13s-4 8-9.969 8H21" stroke="#000" stroke-width="4" stroke-linecap="round" stroke-linejoin="round"/>
</svg>
